X: 10790
T: Drag Her Round The Road
R: reel
M: 4/4
K: Gmajor
BE{G}ED E2GE|D~B,3 DEGD|BE{G}ED E2DE|GABG [D2A2]GA|
BE{G}ED E2GE|D~B,3 DEGD|BE{G}ED E2DE|GABG [D2A2]{d}BA||
[G,4G4] [G,2G2] dB|c2AB cded|B2BA GABd|dBGB AGED|
[G,4G4] [G,2G2] dB|c2AB cdeg|gedB c2ge|dBGB [D2A2]GA||

